X: 47
M:6/8
L:1/8
K:G
e3- e2 f | g2e f2d | B2d g2e |
dBG A2G | E3- E2 :: f | g2f efg |
a2f d2f | g2e faf | e3 e2 f |
g2e f2d | B2d g2e | dBG A2G | E3- E2 :|


